X:1
T:Sean Bui
M:6/8
L:1/8
Q:120
R:Double Jig
N:Shambuy=3DSham Boy=3DSean Bui=3DYellow John (Matt Seattle).
K:D
"G"GBd "C"edB| "D7"def "G"dBA| GBd "C"edB| "D7"e2f "G"g3|=20
GBd "C"edB| "D7"def "G"dBA| bag "C"agd| "D7"e2f "G"g3:|=20
"G"bag "C"agf| "G"ged deg| bag "C"agd| "D7"e2f "G"g3|=20
bag "C"agf| "G"ged deg| bag "D7"fed| e2f "G"g3:|!
